X:24
T:Emma
R:vals
S:Luis Cadena, fiddler from Zaragoza, Aragon, Spain
M:3/4
K:Am
Ac |"Am" e3 fe2 | "Am/G#"c2A2 Ac |"Am/G" e3 fe2 | "Am/F#"c2A2 Ac |
"Dm"B3^A Bc |"E7" d2c2B2 |"Am" A2 AB cd |"E7" e4 Ac |
 "Am" e3 fe2 | "Am/G#"c2A2 Ac |"Am/G" e3 fe2 | "Am/F#"c2A2 Ac |
"B7"B3^A Bc |"E7" d2c2B2 |"Am" A2 AB cB | AB cd e^g ||
  "Dm"a4a2 |"G7" a2g2f2 |"C" e3^de2 |"Am" e2d2c2 | "B7"B4Bc |"E7" d2c2B2 | "Am"A2 AB cd |"A7" e4e^g |
 "Dm"a4a2 | "G7"a2g2f2 |"C" e4e2 | "Am"e2d2c2 | "B7"B4Bc |"E7" d2c2B2 | "Am"A2 AB cB | A6 |]
